src/Pure/16/symbolic/actions/view-compact-symbolic.svg

<svg width="16" height="16" enable-background="new" version="1.1" xmlns="http://www.w3.org/2000/svg">
 <g fill="#363636">
  <path d="m2 2c-0.554 0-1 0.446-1 1v4c0 0.554 0.446 1 1 1h2c0.554 0 1-0.446 1-1v-4c0-0.554-0.446-1-1-1h-2zm0 1h2v4h-2v-4z"/>
  <path d="m7 2c-0.554 0-1 0.446-1 1v4c0 0.554 0.446 1 1 1h2c0.554 0 1-0.446 1-1v-4c0-0.554-0.446-1-1-1zm0 1h2v4h-2z"/>
  <path d="m12 2c-0.554 0-1 0.446-1 1v4c0 0.554 0.446 1 1 1h2c0.554 0 1-0.446 1-1v-4c0-0.554-0.446-1-1-1zm0 1h2v4h-2z"/>
  <path d="m2 9c-0.554 0-1 0.446-1 1v4c0 0.554 0.446 1 1 1h2c0.554 0 1-0.446 1-1v-4c0-0.554-0.446-1-1-1zm0 1h2v4h-2z"/>
  <path d="m7 9c-0.554 0-1 0.446-1 1v4c0 0.554 0.446 1 1 1h2c0.554 0 1-0.446 1-1v-4c0-0.554-0.446-1-1-1zm0 1h2v4h-2z"/>
  <path d="m12 9c-0.554 0-1 0.446-1 1v4c0 0.554 0.446 1 1 1h2c0.554 0 1-0.446 1-1v-4c0-0.554-0.446-1-1-1zm0 1h2v4h-2z"/>
 </g>
</svg>

<?xml version="1.0" encoding="UTF-8" standalone="no"?>
<svg
   width="16"
   height="16"
   enable-background="new"
   version="1.1"
   id="svg6"
   sodipodi:docname="view-compact-symbolic.svg"
   inkscape:version="1.4.2 (ebf0e940d0, 2025-05-08)"
   xmlns:inkscape="http://www.inkscape.org/namespaces/inkscape"
   xmlns:sodipodi="http://sodipodi.sourceforge.net/DTD/sodipodi-0.dtd"
   xmlns="http://www.w3.org/2000/svg"
   xmlns:svg="http://www.w3.org/2000/svg">
  <defs
     id="defs6">
    <style
       id="current-color-scheme"
       type="text/css">
        .ColorScheme-Text { color:#363636; }
     </style>
  </defs>
  <sodipodi:namedview
     id="namedview6"
     pagecolor="#ffffff"
     bordercolor="#000000"
     borderopacity="0.25"
     inkscape:showpageshadow="2"
     inkscape:pageopacity="0.0"
     inkscape:pagecheckerboard="0"
     inkscape:deskcolor="#d1d1d1"
     inkscape:zoom="49.6875"
     inkscape:cx="8"
     inkscape:cy="8"
     inkscape:window-width="1920"
     inkscape:window-height="1010"
     inkscape:window-x="0"
     inkscape:window-y="0"
     inkscape:window-maximized="1"
     inkscape:current-layer="svg6" />
  <path
     id="path1"
     style="fill:currentColor"
     class="ColorScheme-Text"
     d="M 2 2 C 1.446 2 1 2.446 1 3 L 1 7 C 1 7.554 1.446 8 2 8 L 4 8 C 4.554 8 5 7.554 5 7 L 5 3 C 5 2.446 4.554 2 4 2 L 2 2 z M 7 2 C 6.446 2 6 2.446 6 3 L 6 7 C 6 7.554 6.446 8 7 8 L 9 8 C 9.554 8 10 7.554 10 7 L 10 3 C 10 2.446 9.554 2 9 2 L 7 2 z M 12 2 C 11.446 2 11 2.446 11 3 L 11 7 C 11 7.554 11.446 8 12 8 L 14 8 C 14.554 8 15 7.554 15 7 L 15 3 C 15 2.446 14.554 2 14 2 L 12 2 z M 2 3 L 4 3 L 4 7 L 2 7 L 2 3 z M 7 3 L 9 3 L 9 7 L 7 7 L 7 3 z M 12 3 L 14 3 L 14 7 L 12 7 L 12 3 z M 2 9 C 1.446 9 1 9.446 1 10 L 1 14 C 1 14.554 1.446 15 2 15 L 4 15 C 4.554 15 5 14.554 5 14 L 5 10 C 5 9.446 4.554 9 4 9 L 2 9 z M 7 9 C 6.446 9 6 9.446 6 10 L 6 14 C 6 14.554 6.446 15 7 15 L 9 15 C 9.554 15 10 14.554 10 14 L 10 10 C 10 9.446 9.554 9 9 9 L 7 9 z M 12 9 C 11.446 9 11 9.446 11 10 L 11 14 C 11 14.554 11.446 15 12 15 L 14 15 C 14.554 15 15 14.554 15 14 L 15 10 C 15 9.446 14.554 9 14 9 L 12 9 z M 2 10 L 4 10 L 4 14 L 2 14 L 2 10 z M 7 10 L 9 10 L 9 14 L 7 14 L 7 10 z M 12 10 L 14 10 L 14 14 L 12 14 L 12 10 z " />
</svg>
